X: 64
T:Dolly Dimple (#260)
M:4/4
L:1/8
S:Rice-Walsh manuscript
R:Reel
K:G
cB|AGED CDEF|GFGA G2 cB|AGED CDED|EAAB ABcB|
AGED CDEF|GFAF G2 (3Bcd|ecdB cABG|EAAG A2 z||
B|cBAB cedc|BGdB eBdB|cBAB cedc|BAGB A3 B|
cBAB cedc|BGGF GBdB|cedc BdBG|EAAG A2||

